app/images/dist/messages-2.svg

<svg width="48" height="48" viewBox="0 0 48 48" fill="none" xmlns="http://www.w3.org/2000/svg">
<path d="M36.9397 33.66L37.7197 39.98C37.9197 41.64 36.1397 42.7999 34.7197 41.9399L26.3397 36.96C25.4197 36.96 24.5197 36.9 23.6397 36.78C25.1197 35.04 25.9997 32.84 25.9997 30.46C25.9997 24.78 21.0797 20.1801 14.9997 20.1801C12.6797 20.1801 10.5397 20.84 8.7597 22C8.6997 21.5 8.67969 21 8.67969 20.48C8.67969 11.38 16.5797 4 26.3397 4C36.0997 4 43.9997 11.38 43.9997 20.48C43.9997 25.88 41.2197 30.66 36.9397 33.66Z" stroke="#DC143C" stroke-width="1.5" stroke-linecap="round" stroke-linejoin="round"/>
<path d="M26 30.4601C26 32.8401 25.12 35.0402 23.64 36.7802C21.66 39.1802 18.52 40.7201 15 40.7201L9.78 43.8201C8.9 44.3601 7.77999 43.6201 7.89999 42.6001L8.39999 38.6602C5.71999 36.8002 4 33.8201 4 30.4601C4 26.9401 5.88001 23.8401 8.76001 22.0001C10.54 20.8401 12.68 20.1802 15 20.1802C21.08 20.1802 26 24.7801 26 30.4601Z" stroke="#DC143C" stroke-width="1.5" stroke-linecap="round" stroke-linejoin="round"/>
</svg>

<svg width="48" height="48" fill="none" xmlns="http://www.w3.org/2000/svg"><path d="m36.94 33.66.78 6.32c.2 1.66-1.58 2.82-3 1.96l-8.38-4.98c-.92 0-1.82-.06-2.7-.18 1.48-1.74 2.36-3.94 2.36-6.32 0-5.68-4.92-10.28-11-10.28-2.32 0-4.46.66-6.24 1.82-.06-.5-.08-1-.08-1.52C8.68 11.38 16.58 4 26.34 4S44 11.38 44 20.48c0 5.4-2.78 10.18-7.06 13.18Z" stroke="#DC143C" stroke-width="1.5" stroke-linecap="round" stroke-linejoin="round"/><path d="M26 30.46c0 2.38-.88 4.58-2.36 6.32-1.98 2.4-5.12 3.94-8.64 3.94l-5.22 3.1c-.88.54-2-.2-1.88-1.22l.5-3.94C5.72 36.8 4 33.82 4 30.46c0-3.52 1.88-6.62 4.76-8.46 1.78-1.16 3.92-1.82 6.24-1.82 6.08 0 11 4.6 11 10.28Z" stroke="#DC143C" stroke-width="1.5" stroke-linecap="round" stroke-linejoin="round"/></svg>
